X: 41955
T: Walking The Dog
R: jig
M: 6/8
K: Eminor
|:ded c2 d|BGG GFG|A2 D A2 B|c3 B2 A|
GFG GBd|efg a2 g|f2 d ed^c|ded d2 e:|
|:fd^c def|gag g2 d|e2 c A2 e|d2 B G2 e|
fd^c def|gag a2 g|f2 d ed^c|ded d2 e:|
|:cdc e2 A|BcB d2 G|ABA DEF|GAB d2 B|
cdc e2 A|B2 d GAB|ADD cBA|GAG G2 B:|

